groups/nitrogen/guanidine.svg

<svg height="256" viewBox="0 0 256 256" width="256" xmlns="http://www.w3.org/2000/svg"><path d="m0 0h256v256h-256z" fill="#fff"/><path d="m200.9 229.2.1-53.8" fill="none" stroke="#000" stroke-width="2"/><path d="m186.5 144.5-51.4-29.9" fill="none" stroke="#000" stroke-width="2"/><path d="m180.8 154.4-45.7-26.6" fill="none" stroke="#000" stroke-width="2"/><path d="m135.1 114.6.1-53.7" fill="none" stroke="#000" stroke-width="2"/><path d="m135.1 114.6-51.6 29.7" fill="none" stroke="#000" stroke-width="2"/><path d="m239.03 229.228c.006-2.86-3.807-2.867-3.812-.008-.006 2.86-3.819 2.852-3.813-.007.005-2.86-3.807-2.868-3.813-.008s-3.819 2.852-3.813-.008c.006-2.859-3.807-2.867-3.813-.007-.005 2.859-3.818 2.852-3.813-.008.006-2.86-3.807-2.867-3.812-.007-.006 2.859-3.819 2.852-3.813-.008.005-2.86-3.807-2.867-3.813-.008-.006 2.86-3.819 2.852-3.813-.007.006-2.86-3.807-2.868-3.813-.008-.005 2.86-3.818 2.852-3.813-.008.006-2.859-3.807-2.867-3.812-.007-.006 2.859-3.819 2.852-3.813-.008.005-2.86-3.807-2.867-3.813-.007-.006 2.859-3.819 2.852-3.813-.008s-3.807-2.867-3.813-.008c-.006 2.86-3.818 2.852-3.813-.007.006-2.86-3.807-2.868-3.812-.008-.006 2.86-3.819 2.852-3.813-.008" fill="none" stroke="#7f7f7f" stroke-width="2"/><g font-family="sans-serif"><text font-size="40" x="189.1" y="172.9">N</text><text font-size="40" x="123.2" y="58.4">N</text><text font-size="40" x="150.8" y="58.4">H</text><text font-size="26" x="178.4" y="74.4">2</text><text font-size="40" x="16.6" y="172.6">H</text><text font-size="26" x="44.2" y="188.6">2</text><text font-size="40" x="57" y="172.6">N</text></g></svg>

<?xml version='1.0' encoding='iso-8859-1'?>
<svg version='1.1' baseProfile='full'
              xmlns='http://www.w3.org/2000/svg'
                      xmlns:rdkit='http://www.rdkit.org/xml'
                      xmlns:xlink='http://www.w3.org/1999/xlink'
                  xml:space='preserve'
width='256px' height='256px' viewBox='0 0 256 256'>
<!-- END OF HEADER -->
<rect style='opacity:1.0;fill:#FFFFFF;stroke:none' width='256.0' height='256.0' x='0.0' y='0.0'> </rect>
<path class='bond-0 atom-0 atom-1' d='M 200.9,229.2 L 201.0,175.4' style='fill:none;fill-rule:evenodd;stroke:#000000;stroke-width:2.0px;stroke-linecap:butt;stroke-linejoin:miter;stroke-opacity:1' />
<path class='bond-1 atom-1 atom-2' d='M 186.5,144.5 L 135.1,114.6' style='fill:none;fill-rule:evenodd;stroke:#000000;stroke-width:2.0px;stroke-linecap:butt;stroke-linejoin:miter;stroke-opacity:1' />
<path class='bond-1 atom-1 atom-2' d='M 180.8,154.4 L 135.1,127.8' style='fill:none;fill-rule:evenodd;stroke:#000000;stroke-width:2.0px;stroke-linecap:butt;stroke-linejoin:miter;stroke-opacity:1' />
<path class='bond-2 atom-2 atom-3' d='M 135.1,114.6 L 135.2,60.9' style='fill:none;fill-rule:evenodd;stroke:#000000;stroke-width:2.0px;stroke-linecap:butt;stroke-linejoin:miter;stroke-opacity:1' />
<path class='bond-3 atom-2 atom-4' d='M 135.1,114.6 L 83.5,144.3' style='fill:none;fill-rule:evenodd;stroke:#000000;stroke-width:2.0px;stroke-linecap:butt;stroke-linejoin:miter;stroke-opacity:1' />
<path class='atom-1' d='M239.03,229.228 C239.036,226.368 235.223,226.361 235.218,229.22 C235.212,232.08 231.399,232.072 231.405,229.213 C231.41,226.353 227.598,226.345 227.592,229.205 C227.586,232.065 223.773,232.057 223.779,229.197 C223.785,226.338 219.972,226.33 219.966,229.19 C219.961,232.049 216.148,232.042 216.153,229.182 C216.159,226.322 212.346,226.315 212.341,229.175 C212.335,232.034 208.522,232.027 208.528,229.167 C208.533,226.307 204.721,226.3 204.715,229.159 C204.709,232.019 200.896,232.011 200.902,229.152 C200.908,226.292 197.095,226.284 197.089,229.144 C197.084,232.004 193.271,231.996 193.276,229.136 C193.282,226.277 189.469,226.269 189.464,229.129 C189.458,231.988 185.645,231.981 185.651,229.121 C185.656,226.261 181.844,226.254 181.838,229.114 C181.832,231.973 178.019,231.966 178.025,229.106 C178.031,226.246 174.218,226.239 174.212,229.098 C174.206,231.958 170.394,231.95 170.399,229.091 C170.405,226.231 166.592,226.223 166.587,229.083 C166.581,231.943 162.768,231.935 162.774,229.075' style='fill:none;stroke:#7F7F7F;stroke-width:2.0px;stroke-linecap:butt;stroke-linejoin:miter;stroke-opacity:1' />
<text x='189.1' y='172.9' class='atom-1' style='font-size:40px;font-style:normal;font-weight:normal;fill-opacity:1;stroke:none;font-family:sans-serif;text-anchor:start;fill:#000000' >N</text>
<text x='123.2' y='58.4' class='atom-3' style='font-size:40px;font-style:normal;font-weight:normal;fill-opacity:1;stroke:none;font-family:sans-serif;text-anchor:start;fill:#000000' >N</text>
<text x='150.8' y='58.4' class='atom-3' style='font-size:40px;font-style:normal;font-weight:normal;fill-opacity:1;stroke:none;font-family:sans-serif;text-anchor:start;fill:#000000' >H</text>
<text x='178.4' y='74.4' class='atom-3' style='font-size:26px;font-style:normal;font-weight:normal;fill-opacity:1;stroke:none;font-family:sans-serif;text-anchor:start;fill:#000000' >2</text>
<text x='16.6' y='172.6' class='atom-4' style='font-size:40px;font-style:normal;font-weight:normal;fill-opacity:1;stroke:none;font-family:sans-serif;text-anchor:start;fill:#000000' >H</text>
<text x='44.2' y='188.6' class='atom-4' style='font-size:26px;font-style:normal;font-weight:normal;fill-opacity:1;stroke:none;font-family:sans-serif;text-anchor:start;fill:#000000' >2</text>
<text x='57.0' y='172.6' class='atom-4' style='font-size:40px;font-style:normal;font-weight:normal;fill-opacity:1;stroke:none;font-family:sans-serif;text-anchor:start;fill:#000000' >N</text>
</svg>
